img/wheel.svg

<svg width="150" height="150" viewBox="0 0 150 150" fill="none" xmlns="http://www.w3.org/2000/svg">
<path d="M146.341 69.0789C144.934 69.0789 139.587 71.0526 136.773 72.1805C136.492 71.0526 135.366 70.2068 133.959 70.2068C132.552 70.2068 131.144 71.0526 131.144 72.1805L125.797 71.3346C124.953 59.7744 120.45 49.6241 113.415 41.4474L116.51 36.9361C117.355 37.5 119.043 37.5 119.887 36.3722C121.013 35.2444 121.295 33.8346 120.45 32.9887C123.265 31.8609 128.612 29.6053 129.456 28.4774C130.582 27.0677 129.737 24.2481 127.767 21.9925C125.516 20.0188 122.702 19.1729 121.295 20.3008C120.169 21.1466 117.917 26.5038 116.792 29.3233C115.947 28.7594 114.259 29.0414 113.415 29.8872C112.289 31.015 112.008 32.4248 112.852 33.2707L108.349 36.3722C100.188 29.3233 89.7749 24.812 78.5178 23.9662L77.6736 18.609C78.7993 18.3271 79.6435 17.1992 79.6435 15.7895C79.6435 14.3797 78.7993 13.2519 77.6736 12.9699C78.7993 10.1504 80.7692 4.79323 80.7692 3.38346C80.4878 1.40977 77.955 0 74.8593 0C71.7636 0 69.2308 1.40977 68.9493 3.38346C68.9493 4.79323 70.9193 10.1504 72.045 12.9699C70.9193 13.2519 70.0751 14.3797 70.0751 15.7895C70.0751 17.1992 70.9193 18.609 72.045 18.609L71.2008 23.9662C59.6623 24.812 49.531 29.3233 41.3696 36.3722L36.8668 33.2707C37.4296 32.4248 37.4296 30.7331 36.3039 29.8872C35.1782 28.7594 33.7711 28.4774 32.9268 29.3233C31.8011 26.5038 29.5497 21.4286 28.424 20.3008C27.0169 19.1729 24.2026 20.0188 22.2326 22.2744C19.9812 24.2481 19.137 27.0677 20.2627 28.7594C21.1069 29.8872 26.454 32.1429 29.2683 33.2707C28.7054 34.1165 28.9869 35.8083 29.8311 36.6541C30.9569 37.782 32.364 38.0639 33.2083 37.2181L36.3039 41.7293C29.2683 49.906 24.7655 60.3383 23.9212 71.6165L18.5741 72.4624C18.2927 71.3346 17.167 70.4887 15.7599 70.4887C14.3527 70.4887 13.227 71.3346 12.9456 72.4624C10.1313 71.3346 4.78424 69.3609 3.37711 69.3609C1.40713 69.6429 0 72.1805 0 75.282C0 78.3835 1.40713 80.9211 3.37711 81.203C4.78424 81.203 10.1313 79.2293 12.9456 78.1015C13.227 79.2293 14.3527 80.0752 15.7599 80.0752C17.167 80.0752 18.5741 79.2293 18.5741 78.1015L23.9212 78.9474C24.7655 90.5075 29.2683 100.658 36.3039 108.835L33.4897 113.064C32.6454 112.5 30.9569 112.5 30.1126 113.628C28.9869 114.756 28.7054 116.165 29.5497 117.011C26.7355 118.139 21.6698 120.395 20.5441 121.523C19.4184 122.932 20.2627 125.752 22.2326 128.008C24.4841 130.263 27.2983 131.109 28.7054 129.699C29.8311 128.853 32.0826 123.496 33.2083 120.677C34.0525 121.241 35.7411 120.959 36.5854 120.113C37.7111 118.985 37.9925 117.575 37.1482 116.729L41.651 113.628C49.8124 120.677 60.2251 125.188 71.4822 126.034L72.3265 131.391C71.2008 131.673 70.3565 132.801 70.3565 134.211C70.3565 135.62 71.2008 136.748 72.3265 137.03C71.2008 139.85 69.2308 145.207 69.2308 146.617C69.5122 148.59 72.045 150 75.1407 150C78.2364 150 80.7692 148.59 81.0507 146.617C81.0507 145.207 79.0807 139.85 77.955 137.03C79.0807 136.748 79.925 135.62 79.925 134.211C79.925 132.801 79.0807 131.391 77.955 131.391L78.7993 126.034C90.3377 125.188 100.469 120.677 108.63 113.628L113.133 116.729C112.57 117.575 112.57 119.267 113.696 120.113C114.822 121.241 116.229 121.523 117.073 120.677C118.199 123.496 120.45 128.853 121.576 129.699C122.983 130.827 125.797 129.981 128.049 128.008C130.3 125.752 131.144 122.932 129.737 121.523C128.893 120.395 123.546 118.139 120.732 117.011C121.295 116.165 121.013 114.474 120.169 113.628C119.043 112.5 117.636 112.218 116.792 113.064L113.696 108.553C120.732 100.376 125.235 89.9436 126.079 78.6654L131.426 77.8196C131.707 78.9474 132.833 79.7932 134.24 79.7932C135.647 79.7932 136.773 78.9474 137.054 77.8196C139.869 78.9474 145.216 80.9211 146.623 80.9211C148.593 80.6391 150 78.1015 150 75C149.437 72.1805 148.03 69.3609 146.341 69.0789ZM30.9569 76.9737C29.8311 76.9737 28.9869 76.1278 28.9869 75C28.9869 73.8722 29.8311 73.0263 30.9569 73.0263C32.0826 73.0263 32.9268 73.8722 32.9268 75C32.9268 76.1278 32.0826 76.9737 30.9569 76.9737ZM104.409 42.5752C105.253 41.7293 106.379 41.7293 107.223 42.5752C108.068 43.4211 108.068 44.5489 107.223 45.3947C106.379 46.2406 105.253 46.2406 104.409 45.3947C103.846 44.5489 103.846 43.4211 104.409 42.5752ZM74.8593 29.3233C75.985 29.3233 76.8293 30.1692 76.8293 31.297C76.8293 32.4248 75.985 33.2707 74.8593 33.2707C73.7336 33.2707 72.8893 32.4248 72.8893 31.297C72.8893 30.1692 73.7336 29.3233 74.8593 29.3233ZM42.4953 42.5752C43.3396 41.7293 44.4653 41.7293 45.3096 42.5752C46.1539 43.4211 46.1539 44.5489 45.3096 45.3947C44.4653 46.2406 43.3396 46.2406 42.4953 45.3947C41.9325 44.5489 41.9325 43.4211 42.4953 42.5752ZM47.561 50.7519L49.8124 53.0075C50.3752 53.5714 50.9381 53.5714 51.5009 53.2895L54.5966 56.391C53.7523 58.3647 54.5966 61.4662 57.1295 64.0038C59.9437 66.8233 63.8837 67.6692 65.5722 65.9774C63.3208 68.2331 61.9137 71.3346 61.9137 74.718V73.8722H50.9381C50.6567 73.8722 50.3752 73.5902 50.3752 73.0263C50.3752 72.4624 50.6567 72.1805 50.9381 72.1805H62.4766V71.8985C62.4766 71.0526 61.6323 70.2068 60.788 70.2068H49.8124C49.2495 70.2068 47.8424 71.8985 46.9981 73.3083H43.621C43.3396 72.7444 42.7767 72.1805 42.2139 72.1805H38.5554C39.1182 64.2857 42.2139 56.6729 47.561 50.7519ZM45.3096 107.425C44.4653 108.271 43.3396 108.271 42.4953 107.425C41.651 106.579 41.651 105.451 42.4953 104.605C43.3396 103.759 44.4653 103.759 45.3096 104.605C46.1539 105.451 46.1539 106.579 45.3096 107.425ZM47.561 99.2481C42.2139 93.3271 38.8368 85.4323 38.2739 76.9737H41.9325C42.4953 76.9737 43.3396 76.4098 43.3396 75.8459H46.4353C47.2796 77.2556 48.6867 79.2293 49.2495 79.2293H60.2251C61.0694 79.2293 61.9137 78.6654 61.9137 77.8196V77.2556H50.9381C50.6567 77.2556 50.3752 76.9737 50.3752 76.4098C50.3752 75.8459 50.6567 75.5639 50.9381 75.5639H62.4766V74.718C62.4766 78.1015 63.8837 81.203 66.1351 83.4587C64.4465 81.7669 60.5066 82.6128 57.6923 85.4323C55.1595 87.9699 54.3152 91.0714 55.1595 93.0451L52.0638 96.1466C51.5009 95.8647 50.6567 95.8647 50.3752 96.4286L47.561 99.2481ZM74.8593 120.959C73.7336 120.959 72.8893 120.113 72.8893 118.985C72.8893 117.857 73.7336 117.011 74.8593 117.011C75.985 117.011 76.8293 117.857 76.8293 118.985C76.8293 120.113 75.985 120.959 74.8593 120.959ZM107.223 107.425C106.379 108.271 105.253 108.271 104.409 107.425C103.565 106.579 103.565 105.451 104.409 104.605C105.253 103.759 106.379 103.759 107.223 104.605C108.068 105.451 108.068 106.579 107.223 107.425ZM102.158 99.2481L99.9062 96.9925C99.3433 96.4286 98.7805 96.4286 98.2176 96.7105L95.122 93.609C95.9662 91.6353 95.1219 88.5338 92.5891 85.9962C89.7749 83.1767 85.8349 82.3308 84.1463 84.0226C82.4578 85.7143 83.3021 89.6617 86.1163 92.4812C88.6492 95.0188 91.7448 95.8647 93.7148 95.0188L96.8105 98.1203C96.5291 98.6842 96.5291 99.5301 97.0919 99.812L99.3433 102.068C93.4334 107.425 85.8349 110.808 77.3921 111.372V107.707C77.3921 107.143 76.8293 106.297 76.2664 106.297V102.914C77.3921 102.068 79.3621 100.658 79.3621 100.094V89.0978C79.3621 88.2519 78.5178 87.406 77.6736 87.406H77.3921V98.9662C77.3921 99.2481 77.1107 99.5301 76.5479 99.5301C75.985 99.5301 75.7036 99.2481 75.7036 98.9662V87.688H74.8593H74.015V98.9662C74.015 99.2481 73.7336 99.5301 73.1707 99.5301C72.6079 99.5301 72.3265 99.2481 72.3265 98.9662V87.688H71.7636C70.9193 87.688 70.3565 88.5338 70.3565 89.3797V100.376C70.3565 100.94 72.3265 102.35 73.7336 103.195V106.297C73.1707 106.579 72.6079 107.143 72.6079 107.707V111.372C64.1651 110.808 56.2852 107.425 50.3752 102.068L52.6266 99.812C53.1895 99.2481 53.1895 98.6842 52.9081 98.1203L56.0038 95.0188C57.9737 95.8647 61.0694 95.0188 63.6023 92.4812C66.4165 89.6617 67.2608 85.7143 65.5722 84.0226C67.8236 86.2782 70.9193 87.688 74.2964 87.688C81.3321 87.688 86.6792 82.0489 86.6792 75.282C86.6792 68.2331 81.0507 62.8759 74.2964 62.8759C70.9193 62.8759 67.8236 64.2857 65.5722 66.5414C67.2608 64.8496 66.4165 60.9023 63.6023 58.0827C61.0694 55.5451 57.9737 54.6993 56.0038 55.5451L52.9081 52.4436C53.1895 51.8797 53.1895 51.0338 52.6266 50.7519L50.3752 48.4962C56.2852 43.1391 64.1651 39.7556 72.6079 39.1917V42.8571C72.6079 43.4211 73.1707 44.2669 73.7336 44.2669V47.3684C72.3265 48.2143 70.3565 49.6241 70.3565 50.188V61.1842C70.3565 62.0301 70.9193 62.8759 71.7636 62.8759H72.3265V51.0338C72.3265 50.7519 72.6079 50.4699 73.1707 50.4699C73.7336 50.4699 74.015 50.7519 74.015 51.0338V62.594H74.8593H75.7036V51.0338C75.7036 50.7519 75.985 50.4699 76.5479 50.4699C77.1107 50.4699 77.3921 50.7519 77.3921 51.0338V62.594H77.6736C78.5178 62.594 79.3621 61.7481 79.3621 60.9023V49.906C79.3621 49.3421 77.6736 47.9323 76.2664 47.0865V43.703C76.8293 43.4211 77.3921 42.8571 77.3921 42.2932V38.6278C85.8349 39.1917 93.4334 42.5752 99.3433 47.6504L97.0919 49.906C96.5291 50.4699 96.5291 51.0338 96.8105 51.5978L93.7148 54.6992C91.7448 53.8534 88.6492 54.6993 86.1163 57.2369C83.3021 60.0564 82.4578 64.0038 84.1463 65.6955C85.8349 67.3872 89.7749 66.5414 92.5891 63.7218C95.1219 61.1842 95.9662 58.0827 95.122 56.109L98.2176 53.0075C98.7805 53.2895 99.6248 53.2895 99.9062 52.7256L102.158 50.4699C107.505 56.391 110.882 64.0038 111.445 72.4624H107.786C107.223 72.4624 106.379 73.0263 106.379 73.5902H103.002C102.158 72.4624 100.75 70.4887 100.188 70.4887H89.212C88.3677 70.4887 87.5235 71.3346 87.5235 72.1805V72.4624H98.7805C99.0619 72.4624 99.3433 72.7444 99.3433 73.3083C99.3433 73.8722 99.0619 74.1541 98.7805 74.1541H87.5235V75.5639H98.7805C99.0619 75.5639 99.3433 75.8459 99.3433 76.4098C99.3433 76.9737 99.0619 77.2556 98.7805 77.2556H87.5235V77.8196C87.5235 78.6654 88.3677 79.2293 89.212 79.2293H100.188C100.75 79.2293 102.158 77.2556 103.002 75.8459H106.098C106.379 76.4098 106.942 76.9737 107.505 76.9737H111.163C110.882 85.7143 107.505 93.3271 102.158 99.2481ZM66.9794 75C66.9794 70.7707 70.3565 67.1053 74.8593 67.1053C79.0807 67.1053 82.7392 70.4887 82.7392 75C82.7392 79.2293 79.3621 82.8947 74.8593 82.8947C70.6379 82.8947 66.9794 79.5113 66.9794 75ZM118.762 76.9737C117.636 76.9737 116.792 76.1278 116.792 75C116.792 73.8722 117.636 73.0263 118.762 73.0263C119.887 73.0263 120.732 73.8722 120.732 75C120.732 76.1278 119.887 76.9737 118.762 76.9737Z" fill="#FFD600"/>
</svg>

<svg width="150" height="150" fill="none" xmlns="http://www.w3.org/2000/svg"><path d="M146.341 69.079c-1.407 0-6.754 1.974-9.568 3.102-.281-1.128-1.407-1.974-2.814-1.974s-2.815.846-2.815 1.974l-5.347-.846c-.844-11.56-5.347-21.71-12.382-29.888l3.095-4.51c.845.563 2.533.563 3.377-.565 1.126-1.128 1.408-2.537.563-3.383 2.815-1.128 8.162-3.384 9.006-4.512 1.126-1.41.281-4.229-1.689-6.485-2.251-1.973-5.065-2.82-6.472-1.691-1.126.846-3.378 6.203-4.503 9.022-.845-.564-2.533-.282-3.377.564-1.126 1.128-1.407 2.538-.563 3.384l-4.503 3.101a51.597 51.597 0 00-29.831-12.406l-.844-5.357c1.125-.282 1.97-1.41 1.97-2.82s-.845-2.537-1.97-2.82c1.125-2.819 3.095-8.176 3.095-9.586C80.488 1.41 77.955 0 74.86 0c-3.095 0-5.628 1.41-5.91 3.383 0 1.41 1.97 6.767 3.096 9.587-1.126.282-1.97 1.41-1.97 2.82s.844 2.819 1.97 2.819l-.844 5.357c-11.539.846-21.67 5.357-29.831 12.406l-4.503-3.101c.563-.846.563-2.538-.563-3.384-1.126-1.128-2.533-1.41-3.377-.564-1.126-2.82-3.377-7.894-4.503-9.022-1.407-1.128-4.221-.282-6.191 1.973-2.252 1.974-3.096 4.794-1.97 6.485.844 1.128 6.191 3.384 9.005 4.512-.563.846-.281 2.537.563 3.383 1.126 1.128 2.533 1.41 3.377.564l3.096 4.511A51.797 51.797 0 0023.92 71.617l-5.347.845c-.281-1.127-1.407-1.973-2.814-1.973s-2.533.846-2.814 1.973c-2.815-1.127-8.162-3.101-9.569-3.101C1.407 69.643 0 72.18 0 75.282c0 3.102 1.407 5.64 3.377 5.921 1.407 0 6.754-1.974 9.569-3.102.281 1.128 1.407 1.974 2.814 1.974s2.814-.846 2.814-1.974l5.347.846c.845 11.56 5.347 21.711 12.383 29.888l-2.814 4.229c-.845-.564-2.533-.564-3.377.564-1.126 1.128-1.408 2.537-.563 3.383-2.815 1.128-7.88 3.384-9.006 4.512-1.126 1.409-.281 4.229 1.689 6.485 2.251 2.255 5.065 3.101 6.472 1.691 1.126-.846 3.378-6.203 4.503-9.022.845.564 2.533.282 3.377-.564 1.126-1.128 1.407-2.538.563-3.384l4.503-3.101a51.599 51.599 0 0029.831 12.406l.844 5.357c-1.125.282-1.97 1.41-1.97 2.82 0 1.409.845 2.537 1.97 2.819-1.125 2.82-3.095 8.177-3.095 9.587.281 1.973 2.814 3.383 5.91 3.383 3.095 0 5.628-1.41 5.91-3.383 0-1.41-1.97-6.767-3.096-9.587 1.126-.282 1.97-1.41 1.97-2.819 0-1.41-.844-2.82-1.97-2.82l.844-5.357c11.539-.846 21.67-5.357 29.831-12.406l4.503 3.101c-.563.846-.563 2.538.563 3.384 1.126 1.128 2.533 1.41 3.377.564 1.126 2.819 3.377 8.176 4.503 9.022 1.407 1.128 4.221.282 6.473-1.691 2.251-2.256 3.095-5.076 1.688-6.485-.844-1.128-6.191-3.384-9.005-4.512.563-.846.281-2.537-.563-3.383-1.126-1.128-2.533-1.41-3.377-.564l-3.096-4.511a51.795 51.795 0 0012.383-29.888l5.347-.845c.281 1.127 1.407 1.973 2.814 1.973s2.533-.846 2.814-1.973c2.815 1.127 8.162 3.101 9.569 3.101C148.593 80.64 150 78.101 150 75c-.563-2.82-1.97-5.64-3.659-5.921zM30.957 76.974c-1.126 0-1.97-.846-1.97-1.974 0-1.128.844-1.974 1.97-1.974s1.97.846 1.97 1.974c0 1.128-.844 1.974-1.97 1.974zm73.452-34.399c.844-.846 1.97-.846 2.814 0 .845.846.845 1.974 0 2.82-.844.846-1.97.846-2.814 0a2.564 2.564 0 010-2.82zm-29.55-13.252c1.126 0 1.97.846 1.97 1.974 0 1.128-.844 1.974-1.97 1.974-1.125 0-1.97-.846-1.97-1.974 0-1.128.845-1.974 1.97-1.974zM42.495 42.575c.845-.846 1.97-.846 2.815 0 .844.846.844 1.974 0 2.82-.845.846-1.97.846-2.815 0a2.565 2.565 0 010-2.82zm5.066 8.177l2.251 2.255c.563.564 1.126.564 1.689.282l3.096 3.102c-.845 1.974 0 5.075 2.532 7.613 2.815 2.82 6.755 3.665 8.443 1.973-2.251 2.256-3.658 5.358-3.658 8.741v-.846H50.938c-.281 0-.563-.282-.563-.846 0-.564.282-.846.563-.846h11.539v-.282c0-.845-.845-1.691-1.689-1.691H49.812c-.563 0-1.97 1.692-2.814 3.101h-3.377c-.281-.564-.844-1.128-1.407-1.128h-3.659c.563-7.894 3.659-15.507 9.006-21.428zm-2.251 56.673c-.845.846-1.97.846-2.815 0-.844-.846-.844-1.974 0-2.82.845-.846 1.97-.846 2.815 0 .844.846.844 1.974 0 2.82zm2.251-8.177c-5.347-5.92-8.724-13.816-9.287-22.274h3.658c.563 0 1.408-.564 1.408-1.128h3.095c.845 1.41 2.252 3.383 2.814 3.383h10.976c.844 0 1.689-.564 1.689-1.41v-.563H50.938c-.281 0-.563-.282-.563-.846 0-.564.282-.846.563-.846h11.539v-.846c0 3.383 1.407 6.485 3.658 8.74-1.689-1.691-5.628-.845-8.443 1.974-2.532 2.538-3.377 5.64-2.532 7.613l-3.096 3.102c-.563-.282-1.407-.282-1.689.282l-2.814 2.82zm27.298 21.711c-1.125 0-1.97-.846-1.97-1.974 0-1.128.845-1.974 1.97-1.974 1.126 0 1.97.846 1.97 1.974 0 1.128-.844 1.974-1.97 1.974zm32.364-13.534c-.844.846-1.97.846-2.814 0-.844-.846-.844-1.974 0-2.82.844-.846 1.97-.846 2.814 0 .845.846.845 1.974 0 2.82zm-5.065-8.177l-2.252-2.255c-.563-.564-1.126-.564-1.688-.282l-3.096-3.102c.844-1.974 0-5.075-2.533-7.613-2.814-2.82-6.754-3.665-8.443-1.973-1.688 1.691-.844 5.639 1.97 8.458 2.533 2.538 5.629 3.384 7.599 2.538l3.096 3.101c-.282.564-.282 1.41.28 1.692l2.252 2.256c-5.91 5.357-13.508 8.74-21.95 9.304v-3.665c0-.564-.564-1.41-1.127-1.41v-3.383c1.126-.846 3.096-2.256 3.096-2.82V89.098c0-.846-.844-1.692-1.688-1.692h-.282v11.56c0 .282-.281.564-.844.564s-.844-.282-.844-.564V87.688h-1.689v11.278c0 .282-.281.564-.844.564s-.845-.282-.845-.564V87.688h-.562c-.845 0-1.407.846-1.407 1.692v10.996c0 .564 1.97 1.974 3.377 2.819v3.102c-.563.282-1.126.846-1.126 1.41v3.665c-8.443-.564-16.323-3.947-22.233-9.304l2.252-2.256c.563-.564.563-1.128.281-1.692l3.096-3.101c1.97.846 5.065 0 7.598-2.538 2.815-2.82 3.659-6.767 1.97-8.458 2.252 2.255 5.347 3.665 8.724 3.665 7.036 0 12.383-5.64 12.383-12.406 0-7.049-5.628-12.406-12.383-12.406-3.377 0-6.472 1.41-8.724 3.665 1.689-1.691.844-5.639-1.97-8.458-2.533-2.538-5.628-3.384-7.598-2.538l-3.096-3.101c.282-.564.282-1.41-.281-1.692l-2.252-2.256c5.91-5.357 13.79-8.74 22.233-9.304v3.665c0 .564.563 1.41 1.126 1.41v3.101c-1.407.846-3.377 2.256-3.377 2.82v10.996c0 .846.562 1.692 1.407 1.692h.563V51.034c0-.282.28-.564.844-.564.563 0 .844.282.844.564v11.56h1.689v-11.56c0-.282.281-.564.844-.564s.844.282.844.564v11.56h.282c.844 0 1.688-.846 1.688-1.692V49.906c0-.564-1.688-1.974-3.096-2.82v-3.383c.563-.282 1.126-.846 1.126-1.41v-3.665c8.443.564 16.041 3.947 21.951 9.022l-2.251 2.256c-.563.564-.563 1.128-.281 1.692l-3.096 3.101c-1.97-.846-5.066 0-7.599 2.538-2.814 2.82-3.658 6.767-1.97 8.458 1.689 1.692 5.629.846 8.443-1.973 2.533-2.538 3.377-5.64 2.533-7.613l3.096-3.102c.563.282 1.407.282 1.688-.281l2.252-2.256c5.347 5.921 8.724 13.534 9.287 21.992h-3.659c-.563 0-1.407.564-1.407 1.128h-3.377c-.844-1.128-2.252-3.101-2.814-3.101H89.212c-.844 0-1.689.846-1.689 1.691v.282h11.258c.28 0 .562.282.562.846 0 .564-.281.846-.563.846H87.523v1.41h11.258c.28 0 .562.282.562.846 0 .564-.281.846-.563.846H87.523v.564c0 .845.845 1.41 1.689 1.41h10.976c.562 0 1.97-1.974 2.814-3.384h3.096c.281.564.844 1.128 1.407 1.128h3.658c-.281 8.74-3.658 16.353-9.005 22.274zM66.979 75c0-4.23 3.377-7.895 7.88-7.895 4.222 0 7.88 3.384 7.88 7.895 0 4.23-3.377 7.895-7.88 7.895-4.221 0-7.88-3.384-7.88-7.895zm51.783 1.974c-1.126 0-1.97-.846-1.97-1.974 0-1.128.844-1.974 1.97-1.974 1.125 0 1.97.846 1.97 1.974 0 1.128-.845 1.974-1.97 1.974z" fill="#FFD600"/></svg>
